svg/u1f9d1_1f3fc_200d_1f9af.svg

<svg viewBox="0 0 128 128" xmlns="http://www.w3.org/2000/svg">
  <g id="head_3_">
    <path id="head_4_" d="M86.76,13.59c-2.51-4.06-8.2-7.22-12.91-6.44c-5.28,0.87-8.11,4.67-8.86,9.49 c-0.27,1.75-0.22,3.49,0.08,4.72c0.04,0.15,0.33,1.22,0.35,1.56c0.2,1.3-2.32,2.59-2.61,4.02c-0.22,1.08,2.03,1.77,2.21,1.96 c0.88,0.97-0.51,5.58,5.66,6.04c2.37,0.18,1.91,0.03,2.61,0.3c1.09,0.42,0.99,3.32,0.99,3.32s0.61,4.78,4.69,3.51 c4.66-1.44,4.84-4.74,4.84-4.74s-1.25-4.61,1.05-9.38C87.07,24.12,88.38,16.19,86.76,13.59z" fill="#E0BB95"/>
  </g>
  <path id="mouth_2_" d="M65.64,31.48c0.86,0.05,1.7-0.15,2.43-0.69c0.79-0.59,0.25-1.24-0.66-0.86 c-0.55,0.23-1.32,0.35-2.02,0.22L65.64,31.48z" fill="#6D4C41"/>
  <ellipse id="eye_2_" cx="69.24" cy="23.63" fill="#5D4037" rx="1.13" ry="1.74" transform="matrix(0.9995 -0.0315 0.0315 0.9995 -0.7101 2.1929)"/>
  <path id="eyebrow_2_" d="M68.36,21.07c-1.12,0.26-1.34-0.48-0.94-1.04c0.29-0.42,0.98-0.74,2.25-0.42 c1.2,0.3,1.66,1.03,1.97,1.47s0.24,0.86-0.04,0.89C71.22,21.99,69.75,20.74,68.36,21.07z" fill="#AB872F"/>
  <g id="cane">
    <g>
      <linearGradient id="SVGID_1_" gradientTransform="matrix(0.9991 0.0432 0.0432 -0.9991 3.7744 120.713)" gradientUnits="userSpaceOnUse" x1="52.439" x2="31.4909" y1="40.7397" y2="15.0241">
        <stop offset="0.4697" stop-color="#E0E0E0"/>
        <stop offset="0.9915" stop-color="#BDBDBD"/>
      </linearGradient>
      <polygon fill="url(#SVGID_1_)" points="23.68,121.23 21.55,119.19 57.34,81.65 67.22,71.39 69.35,73.42 54.03,89.42 "/>
      <rect fill="#FF3D00" height="2.95" transform="matrix(0.69 -0.7239 0.7239 0.69 -73.203 56.1838)" width="18.44" x="19.76" y="112.07"/>
      <linearGradient id="SVGID_2_" gradientTransform="matrix(0.9981 0.0607 -0.0607 0.9981 -3.057 0.3117)" gradientUnits="userSpaceOnUse" x1="34.6211" x2="30.6055" y1="116.5501" y2="120.5639">
        <stop offset="0.4697" stop-color="#E0E0E0"/>
        <stop offset="0.9915" stop-color="#BDBDBD"/>
      </linearGradient>
      <circle cx="21.81" cy="121.05" fill="url(#SVGID_2_)" r="2.86"/>
    </g>
    <path d="M57.34,81.65l2.15,2.05l11.79-12.28c0.39-0.4,0.37-1.04-0.03-1.43l-0.68-0.65 c-0.4-0.38-1.04-0.37-1.42,0.03L57.34,81.65z" fill="#636262"/>
  </g>
  <g id="leg_x5F_right">
    <path d="M104.36,108.76l-14-15.97c-0.87-1-1.39-2.25-1.47-3.57l-1.37-22.35l-15.42,1.7l4.86,23.06 c0.79,3.73,2.88,7.06,5.91,9.37l16.41,12.53L104.36,108.76z" fill="#616161"/>
  </g>
  <g id="leg_x5F_left">
    <path d="M87.33,63.18l-17.49,1.6l-4.5,20.29c-0.83,3.74-1.12,7.59-0.85,11.42l1.63,23.12h6.64l2.94-24.9 c0,0,4.98-13.26,5.14-13.33c3.26-1.54,7.38-3.89,7.38-9.64C88.22,70.92,87.33,63.18,87.33,63.18z" fill="#7C7C7C"/>
  </g>
  <g id="shoe_x5F_left">
    <path d="M73.85,123.98c0.63,0,1.14-0.51,1.14-1.14l0-2.79c0-1.89-1.92-4.05-1.92-4.05h-6.94l-6.25,2.06 c-1.51,0.59-2.51,2.05-2.53,3.68L57.35,123c0,0.55,0.44,1,1,1L73.85,123.98z" fill="#4568AD"/>
  </g>
  <g id="shoe_x5F_right">
    <path d="M108.72,111.9c0.44-0.45,0.44-1.17,0-1.61l-1.97-1.97c-1.34-1.34-4.22-1.51-4.22-1.51l-4.91,4.91 l-2.96,5.88c-0.65,1.49-0.33,3.23,0.81,4.39l0.89,0.89c0.39,0.39,1.02,0.39,1.41,0L108.72,111.9z" fill="#325599"/>
  </g>
  <g id="shirt">
    <radialGradient id="SVGID_3_" cx="73.7035" cy="77.3572" gradientTransform="matrix(1 0 0 -1 0 130)" gradientUnits="userSpaceOnUse" r="21.1882">
      <stop offset="0.3666" stop-color="#F58B21"/>
      <stop offset="1" stop-color="#EC6E24"/>
    </radialGradient>
    <path d="M86.15,73.76h-13.9c-2.26,0-4.09-2.17-4.09-4.84l2.14-22.39c0.43-4.09,1.87-7.95,4.66-9.61 c4.86-3.39,8.56-1.33,9.96,0.79c1,1.52,1.42,3.27,1.65,5.85l2.45,25.34C89.02,71.8,88.41,73.76,86.15,73.76z" fill="url(#SVGID_3_)"/>
  </g>
  <g id="arm">
    <linearGradient id="arm_2_" gradientTransform="matrix(1 0 0 -1 0 130)" gradientUnits="userSpaceOnUse" x1="75.0372" x2="78.5256" y1="76.3028" y2="64.4424">
      <stop offset="0" stop-color="#CCA47A"/>
      <stop offset="0.5" stop-color="#E0BB95"/>
    </linearGradient>
    <path id="arm_1_" d="M86.1,57.33l-1.8-9.96l-8,0.86l2.46,9.94l-9.36,9.69 c-2.65,2.67,2.19,5.24,3.9,4.14l8.52-6.89C83.34,63.81,86.55,61.6,86.1,57.33z" fill="url(#arm_2_)"/>
  </g>
  <g id="hand">
    <linearGradient id="hand_2_" gradientTransform="matrix(1 0 0 -1 0 130)" gradientUnits="userSpaceOnUse" x1="63.6429" x2="73.3019" y1="57.3533" y2="57.3533">
      <stop offset="0" stop-color="#CCA47A"/>
      <stop offset="0.5" stop-color="#E0BB95"/>
    </linearGradient>
    <path id="hand_1_" d="M70.56,68.37c0.16-0.12,0.24-0.34,0.18-0.55c-0.08-0.26-0.37-0.41-0.63-0.32 c-0.02,0.01-2.85,0.93-4.49,1.58c-0.47,0.19-1.9,0.75-1.94,2.5c-0.03,1.33-0.04,3.58-0.04,3.58l2.31-2.4 c-0.06,0.89-0.13,2.8-0.15,3.59c-0.04,1.33,0.98,1.86,2.35,1.12c2.06-1.11,3.26-1.39,4.19-2.88c0.29-0.48,0.78-3.59,0.96-4.24 L70.56,68.37z" fill="url(#hand_2_)"/>
  </g>
  <g id="arm_x5F_shirt">
    <path d="M75.64,53.35l10.84-1.97l-1.75-9.67c-0.54-2.98-3.39-4.96-6.37-4.42l-0.05,0.01 c-2.98,0.54-4.96,3.39-4.42,6.37L75.64,53.35z" fill="#EC6E24"/>
  </g>
  <path id="cord" d="M77.28,73.04c-1.11-3.09-4.96-6.54-8.13-6.25c-2.2,0-2.12,1.77-2.12,1.77l2.25-0.78 c2.33-0.29,6.09,2.94,7.05,5.6c0.37,1.04,0.55,2.45-0.75,3.26c-0.18,0.11-0.36,0.13-0.56,0.06c-0.6-0.22-1.76-1.76-2.41-2.92 c0,0-0.11,0.6-0.26,0.83C72.26,74.74,72,75.08,72,75.08c0.63,1.03,1.86,2.26,2.68,2.55c0.19,0.07,0.39,0.1,0.57,0.1 c0.3,0,0.59-0.08,0.85-0.25C77.55,76.59,77.97,74.97,77.28,73.04z" fill="#504F4F"/>
  <path id="hair" d="M90.05,14.32c-1.4-3.72-4.75-4.44-4.75-4.44s-1.16-5.78-9.53-4.67 C73.2,5.56,71.54,7.12,70,7.79c-1.32,0.58-2.7,0.42-2.92-1.84c-1.78,0.87-2.58,2.27-1.68,4.65c-1.67,0.36-2.32,1.78-2.7,3.42 c-0.43,1.82,0.54,3.55,2.22,4.34c0.43-1.8,2.56-2.55,4.23-2.51c1.47,0.04,3,0.37,4.38-0.13c0.53-0.19,1.02-0.5,1.53-0.73 c0.12,0,0.19,0,0.19,0c1.77,1-0.7,5.1,1.24,7.59c0.38,0.49,0.72,0.33,0.72,0.33l0.83-1.13c0.63-0.78,1.2-1.45,1.95-1.26 c2.23,0.55,1.72,4.46-0.95,5.25c-0.27,0.08,0.29,1.03,1,2.33c0.71,1.29,2.19,2.05,4.25,2.06c2.06,0.01,3.33-1.51,3.33-1.51 c0,0-2.31-1.14,0.59-3.55c2.87-2.38,1.17-5.26,1.17-5.26S91.13,17.21,90.05,14.32z" fill="#AB872F"/>
  <g id="hairHighlights">
    <radialGradient id="SVGID_4_" cx="87.7135" cy="127.9094" gradientTransform="matrix(0.1917 0.9814 0.7281 -0.1422 -29.4306 -49.5848)" gradientUnits="userSpaceOnUse" r="13.2231">
      <stop offset="0.6985" stop-color="#BFA055" stop-opacity="0"/>
      <stop offset="1" stop-color="#BFA055"/>
    </radialGradient>
    <path d="M86.77,23.23c1.72-2.16,4.99-4.97,2.95-9.62c-0.8-1.82-2.39-3.13-4.41-3.71 c0,0,0.03,0.69-0.35,1.25c-0.48,0.72-1.66,0.73-1.66,0.73C86.96,16.53,86.58,19.43,86.77,23.23z" fill="url(#SVGID_4_)"/>
    <radialGradient id="SVGID_5_" cx="80.6174" cy="135.3233" gradientTransform="matrix(0.9029 0.4298 0.5096 -1.0706 -71.5514 115.87)" gradientUnits="userSpaceOnUse" r="3.3928">
      <stop offset="0.58" stop-color="#BFA055"/>
      <stop offset="1" stop-color="#BFA055" stop-opacity="0"/>
    </radialGradient>
    <path d="M73.76,5.76c-0.76,0.27-2.25,1.19-2.55,1.37c-0.34,0.21-1.65,1.06-2.62,0.94 c-1.4-0.18-1.45-1.85-1.51-2.11c-0.22,0.87-0.53,4.69,2.35,4.77c1.69,0.05,2.66-1.49,3.22-2.76C72.87,7.5,73.68,5.94,73.76,5.76z" fill="url(#SVGID_5_)"/>
    <radialGradient id="SVGID_6_" cx="78.3836" cy="130.605" gradientTransform="matrix(0.9988 -0.0479 -0.0586 -1.2219 -2.7268 172.1519)" gradientUnits="userSpaceOnUse" r="3.0304">
      <stop offset="0.7016" stop-color="#BFA055" stop-opacity="0"/>
      <stop offset="1" stop-color="#BFA055"/>
    </radialGradient>
    <path d="M65.41,10.6c0,0,0.94-0.27,2.16,0.19c-1.19-0.89-0.49-4.83-0.49-4.83 C66.84,6.09,64.04,7.2,65.41,10.6z" fill="url(#SVGID_6_)"/>
    <radialGradient id="SVGID_7_" cx="68.4066" cy="124.187" gradientTransform="matrix(0.9129 0.1568 0.2083 -1.3878 -20.2928 177.912)" gradientUnits="userSpaceOnUse" r="6.4122">
      <stop offset="0.5981" stop-color="#BFA055" stop-opacity="0"/>
      <stop offset="1" stop-color="#BFA055"/>
    </radialGradient>
    <path d="M65.41,10.6c-1.89,0.39-2.61,2.45-2.75,3.7c-0.08,0.7-0.03,1.47,0.29,2.1 c0.73,1.42,1.67,1.77,1.98,1.95l2.64-7.57C66.98,10.61,66.57,10.37,65.41,10.6z" fill="url(#SVGID_7_)"/>
    <radialGradient id="SVGID_8_" cx="128.0308" cy="64.9604" gradientTransform="matrix(-0.9287 -0.4153 -0.23 0.5234 210.7999 30.0597)" gradientUnits="userSpaceOnUse" r="10.4572">
      <stop offset="0.6985" stop-color="#BFA055" stop-opacity="0"/>
      <stop offset="1" stop-color="#BFA055"/>
    </radialGradient>
    <path d="M80.85,5.49c2.47,0.73,4.07,2.67,4.44,4.37c0.11,0.5-0.2,4.65-8.92-0.81 c-3.24-2.03-2.94-3.12-2.56-3.28C75.1,5.2,78.08,4.67,80.85,5.49z" fill="url(#SVGID_8_)"/>
    <radialGradient id="SVGID_9_" cx="345.0666" cy="43.8275" gradientTransform="matrix(-0.9997 -0.027 0.02 -0.7416 432.1761 68.406)" gradientUnits="userSpaceOnUse" r="3.2334">
      <stop offset="0.5385" stop-color="#BFA055"/>
      <stop offset="1" stop-color="#BFA055" stop-opacity="0"/>
    </radialGradient>
    <path d="M84.11,27.26c-0.4-3.38,4.86-2.91,4.86-2.91s-0.31,0.35-0.85,0.84 c-0.76,0.68-1.25,1.28-1.34,1.93c-0.15,1,0.86,1.52,0.86,1.52S84.85,29.38,84.11,27.26z" fill="url(#SVGID_9_)"/>
    <radialGradient id="SVGID_10_" cx="94.451" cy="112.5579" gradientTransform="matrix(0.6836 -0.7298 -0.5414 -0.5071 82.6245 149.2086)" gradientUnits="userSpaceOnUse" r="4.3253">
      <stop offset="0.6985" stop-color="#BFA055" stop-opacity="0"/>
      <stop offset="1" stop-color="#BFA055"/>
    </radialGradient>
    <path d="M89.39,19.84c0,0-2.18,3.33-2.87,3.54c-0.83,0.26,1.7,1.71,1.7,1.71S90.99,23.1,89.39,19.84 z" fill="url(#SVGID_10_)"/>
  </g>
</svg>

<svg viewBox="0 0 128 128" xmlns="http://www.w3.org/2000/svg">
  <defs>
    <radialGradient id="SVGID_3_" cx="73.7035" cy="-52.6428" gradientTransform="matrix(1 0 0 -1 0 0)" gradientUnits="userSpaceOnUse" r="21.1882">
      <stop offset="0.3666" stop-color="#F58B21"/>
      <stop offset="1" stop-color="#EC6E24"/>
    </radialGradient>
    <linearGradient id="arm_2_" gradientTransform="matrix(1 0 0 -1 0 0)" gradientUnits="userSpaceOnUse" x1="75.0372" x2="78.5256" y1="-53.6972" y2="-65.5576">
      <stop offset="0" stop-color="#CCA47A"/>
      <stop offset="0.5" stop-color="#E0BB95"/>
    </linearGradient>
    <linearGradient id="hand_2_" gradientTransform="matrix(1 0 0 -1 0 0)" gradientUnits="userSpaceOnUse" x1="63.6429" x2="73.3019" y1="-72.6467" y2="-72.6467">
      <stop offset="0" stop-color="#CCA47A"/>
      <stop offset="0.5" stop-color="#E0BB95"/>
    </linearGradient>
    <radialGradient id="SVGID_4_" cx="33.403987" cy="101.787348" gradientTransform="matrix(0.1917 0.9814 0.7281 -0.1422 0 0)" gradientUnits="userSpaceOnUse" r="13.2231">
      <stop offset="0.6985" stop-color="#BFA055" stop-opacity="0"/>
      <stop offset="1" stop-color="#BFA055"/>
    </radialGradient>
    <radialGradient id="SVGID_5_" cx="65.810949" cy="21.150114" gradientTransform="matrix(0.9029 0.4298 0.5096 -1.0706 0 0)" gradientUnits="userSpaceOnUse" r="3.3928">
      <stop offset="0.58" stop-color="#BFA055"/>
      <stop offset="1" stop-color="#BFA055" stop-opacity="0"/>
    </radialGradient>
    <radialGradient id="SVGID_6_" cx="67.412759" cy="-9.853627" gradientTransform="matrix(0.9988 -0.0479 -0.0586 -1.2219 0 0)" gradientUnits="userSpaceOnUse" r="3.0304">
      <stop offset="0.7016" stop-color="#BFA055" stop-opacity="0"/>
      <stop offset="1" stop-color="#BFA055"/>
    </radialGradient>
    <radialGradient id="SVGID_7_" cx="75.252422" cy="-3.236674" gradientTransform="matrix(0.9129 0.1568 0.2083 -1.3878 0 0)" gradientUnits="userSpaceOnUse" r="6.4122">
      <stop offset="0.5981" stop-color="#BFA055" stop-opacity="0"/>
      <stop offset="1" stop-color="#BFA055"/>
    </radialGradient>
    <radialGradient id="SVGID_8_" cx="-73.561844" cy="-37.564868" gradientTransform="matrix(-0.9287 -0.4153 -0.23 0.5234 0 0)" gradientUnits="userSpaceOnUse" r="10.4572">
      <stop offset="0.6985" stop-color="#BFA055" stop-opacity="0"/>
      <stop offset="1" stop-color="#BFA055"/>
    </radialGradient>
    <radialGradient id="SVGID_9_" cx="-88.768573" cy="-32.61863" gradientTransform="matrix(-0.9997 -0.027 0.02 -0.7416 0 0)" gradientUnits="userSpaceOnUse" r="3.2334">
      <stop offset="0.5385" stop-color="#BFA055"/>
      <stop offset="1" stop-color="#BFA055" stop-opacity="0"/>
    </radialGradient>
    <radialGradient id="SVGID_10_" cx="42.032063" cy="-106.241666" gradientTransform="matrix(0.6836 -0.7298 -0.5414 -0.5071 0 0)" gradientUnits="userSpaceOnUse" r="4.3253">
      <stop offset="0.6985" stop-color="#BFA055" stop-opacity="0"/>
      <stop offset="1" stop-color="#BFA055"/>
    </radialGradient>
    <linearGradient id="SVGID_1_" gradientTransform="matrix(0.9991 0.0432 0.0432 -0.9991 0 0)" gradientUnits="userSpaceOnUse" x1="61.424202" x2="40.476102" y1="-79.693529" y2="-105.409129">
      <stop offset="0.4697" stop-color="#E0E0E0"/>
      <stop offset="0.9915" stop-color="#BDBDBD"/>
    </linearGradient>
    <linearGradient id="SVGID_2_" gradientTransform="matrix(0.9981 0.0607 -0.0607 0.9981 0 0)" gradientUnits="userSpaceOnUse" x1="31.588489" x2="27.572889" y1="117.046823" y2="121.060623">
      <stop offset="0.4697" stop-color="#E0E0E0"/>
      <stop offset="0.9915" stop-color="#BDBDBD"/>
    </linearGradient>
  </defs>
  <path id="head_4_" d="M86.76,13.59 C84.25,9.53 78.56,6.37 73.85,7.15 C68.57,8.02 65.74,11.82 64.99,16.64 C64.72,18.39 64.77,20.13 65.07,21.36 C65.11,21.51 65.4,22.58 65.42,22.92 C65.62,24.22 63.1,25.51 62.81,26.94 C62.59,28.02 64.84,28.71 65.02,28.9 C65.9,29.87 64.51,34.48 70.68,34.94 C73.05,35.12 72.59,34.97 73.29,35.24 C74.38,35.66 74.28,38.56 74.28,38.56 C74.28,38.56 74.89,43.34 78.97,42.07 C83.63,40.63 83.81,37.33 83.81,37.33 C83.81,37.33 82.56,32.72 84.86,27.95 C87.07,24.12 88.38,16.19 86.76,13.59 Z" fill="#E0BB95"/>
  <path id="mouth_2_" d="M65.64,31.48 C66.5,31.53 67.34,31.33 68.07,30.79 C68.86,30.2 68.32,29.55 67.41,29.93 C66.86,30.16 66.09,30.28 65.39,30.15 L65.64,31.48 Z" fill="#6D4C41"/>
  <path id="eye_2_" d="M70.369,23.594 C70.399,24.555 69.918,25.349 69.294,25.369 C68.671,25.389 68.14,24.626 68.11,23.666 C68.08,22.705 68.561,21.911 69.185,21.891 C69.809,21.871 70.339,22.634 70.369,23.594 Z" fill="#5D4037"/>
  <path id="eyebrow_2_" d="M68.36,21.07 C67.24,21.33 67.02,20.59 67.42,20.03 C67.71,19.61 68.4,19.29 69.67,19.61 C70.87,19.91 71.33,20.64 71.64,21.08 C71.95,21.52 71.88,21.94 71.6,21.97 C71.22,21.99 69.75,20.74 68.36,21.07 Z" fill="#AB872F"/>
  <path d="M23.68,121.23 L21.55,119.19 L57.34,81.65 L67.22,71.39 L69.35,73.42 L54.03,89.42 Z" fill="url(#SVGID_1_)"/>
  <path d="M21.559,119.208 L34.282,105.859 L36.418,107.895 L23.694,121.243 L21.559,119.208 Z" fill="#FF3D00"/>
  <path d="M24.67,121.05 A2.86 2.86 0 1 1 18.95,121.05 A2.86 2.86 0 1 1 24.67,121.05 Z" fill="url(#SVGID_2_)"/>
  <path d="M57.34,81.65 L59.49,83.7 L71.28,71.42 C71.67,71.02 71.65,70.38 71.25,69.99 L70.57,69.34 C70.17,68.96 69.53,68.97 69.15,69.37 L57.34,81.65 Z" fill="#636262"/>
  <path d="M104.36,108.76 L90.36,92.79 C89.49,91.79 88.97,90.54 88.89,89.22 L87.52,66.87 L72.1,68.57 L76.96,91.63 C77.75,95.36 79.84,98.69 82.87,101 L99.28,113.53 L104.36,108.76 Z" fill="#616161"/>
  <path d="M87.33,63.18 L69.84,64.78 L65.34,85.07 C64.51,88.81 64.22,92.66 64.49,96.49 L66.12,119.61 L72.76,119.61 L75.7,94.71 C75.7,94.71 80.68,81.45 80.84,81.38 C84.1,79.84 88.22,77.49 88.22,71.74 C88.22,70.92 87.33,63.18 87.33,63.18 Z" fill="#7C7C7C"/>
  <path d="M73.85,123.98 C74.48,123.98 74.99,123.47 74.99,122.84 L74.99,120.05 C74.99,118.16 73.07,116 73.07,116 L66.13,116 L59.88,118.06 C58.37,118.65 57.37,120.11 57.35,121.74 L57.35,123 C57.35,123.55 57.79,124 58.35,124 L73.85,123.98 Z" fill="#4568AD"/>
  <path d="M108.72,111.9 C109.16,111.45 109.16,110.73 108.72,110.29 L106.75,108.32 C105.41,106.98 102.53,106.81 102.53,106.81 L97.62,111.72 L94.66,117.6 C94.01,119.09 94.33,120.83 95.47,121.99 L96.36,122.88 C96.75,123.27 97.38,123.27 97.77,122.88 L108.72,111.9 Z" fill="#325599"/>
  <path d="M86.15,73.76 L72.25,73.76 C69.99,73.76 68.16,71.59 68.16,68.92 L70.3,46.53 C70.73,42.44 72.17,38.58 74.96,36.92 C79.82,33.53 83.52,35.59 84.92,37.71 C85.92,39.23 86.34,40.98 86.57,43.56 L89.02,68.9 C89.02,71.8 88.41,73.76 86.15,73.76 Z" fill="url(#SVGID_3_)"/>
  <path id="arm_1_" d="M86.1,57.33 L84.3,47.37 L76.3,48.23 L78.76,58.17 L69.4,67.86 C66.75,70.53 71.59,73.1 73.3,72 L81.82,65.11 C83.34,63.81 86.55,61.6 86.1,57.33 Z" fill="url(#arm_2_)"/>
  <path id="hand_1_" d="M70.56,68.37 C70.72,68.25 70.8,68.03 70.74,67.82 C70.66,67.56 70.37,67.41 70.11,67.5 C70.09,67.51 67.26,68.43 65.62,69.08 C65.15,69.27 63.72,69.83 63.68,71.58 C63.65,72.91 63.64,75.16 63.64,75.16 L65.95,72.76 C65.89,73.65 65.82,75.56 65.8,76.35 C65.76,77.68 66.78,78.21 68.15,77.47 C70.21,76.36 71.41,76.08 72.34,74.59 C72.63,74.11 73.12,71 73.3,70.35 L70.56,68.37 Z" fill="url(#hand_2_)"/>
  <path d="M75.64,53.35 L86.48,51.38 L84.73,41.71 C84.19,38.73 81.34,36.75 78.36,37.29 L78.31,37.3 C75.33,37.84 73.35,40.69 73.89,43.67 L75.64,53.35 Z" fill="#EC6E24"/>
  <path id="cord" d="M77.28,73.04 C76.17,69.95 72.32,66.5 69.15,66.79 C66.95,66.79 67.03,68.56 67.03,68.56 L69.28,67.78 C71.61,67.49 75.37,70.72 76.33,73.38 C76.7,74.42 76.88,75.83 75.58,76.64 C75.4,76.75 75.22,76.77 75.02,76.7 C74.42,76.48 73.26,74.94 72.61,73.78 C72.61,73.78 72.5,74.38 72.35,74.61 C72.26,74.74 72,75.08 72,75.08 C72.63,76.11 73.86,77.34 74.68,77.63 C74.87,77.7 75.07,77.73 75.25,77.73 C75.55,77.73 75.84,77.65 76.1,77.48 C77.55,76.59 77.97,74.97 77.28,73.04 Z" fill="#504F4F"/>
  <path id="hair" d="M90.05,14.32 C88.65,10.6 85.3,9.88 85.3,9.88 C85.3,9.88 84.14,4.1 75.77,5.21 C73.2,5.56 71.54,7.12 70,7.79 C68.68,8.37 67.3,8.21 67.08,5.95 C65.3,6.82 64.5,8.22 65.4,10.6 C63.73,10.96 63.08,12.38 62.7,14.02 C62.27,15.84 63.24,17.57 64.92,18.36 C65.35,16.56 67.48,15.81 69.15,15.85 C70.62,15.89 72.15,16.22 73.53,15.72 C74.06,15.53 74.55,15.22 75.06,14.99 C75.18,14.99 75.25,14.99 75.25,14.99 C77.02,15.99 74.55,20.09 76.49,22.58 C76.87,23.07 77.21,22.91 77.21,22.91 L78.04,21.78 C78.67,21 79.24,20.33 79.99,20.52 C82.22,21.07 81.71,24.98 79.04,25.77 C78.77,25.85 79.33,26.8 80.04,28.1 C80.75,29.39 82.23,30.15 84.29,30.16 C86.35,30.17 87.62,28.65 87.62,28.65 C87.62,28.65 85.31,27.51 88.21,25.1 C91.08,22.72 89.38,19.84 89.38,19.84 C89.38,19.84 91.13,17.21 90.05,14.32 Z" fill="#AB872F"/>
  <path d="M86.77,23.23 C88.49,21.07 91.76,18.26 89.72,13.61 C88.92,11.79 87.33,10.48 85.31,9.9 C85.31,9.9 85.34,10.59 84.96,11.15 C84.48,11.87 83.3,11.88 83.3,11.88 C86.96,16.53 86.58,19.43 86.77,23.23 Z" fill="url(#SVGID_4_)"/>
  <path d="M73.76,5.76 C73,6.03 71.51,6.95 71.21,7.13 C70.87,7.34 69.56,8.19 68.59,8.07 C67.19,7.89 67.14,6.22 67.08,5.96 C66.86,6.83 66.55,10.65 69.43,10.73 C71.12,10.78 72.09,9.24 72.65,7.97 C72.87,7.5 73.68,5.94 73.76,5.76 Z" fill="url(#SVGID_5_)"/>
  <path d="M65.41,10.6 C65.41,10.6 66.35,10.33 67.57,10.79 C66.38,9.9 67.08,5.96 67.08,5.96 C66.84,6.09 64.04,7.2 65.41,10.6 Z" fill="url(#SVGID_6_)"/>
  <path d="M65.41,10.6 C63.52,10.99 62.8,13.05 62.66,14.3 C62.58,15 62.63,15.77 62.95,16.4 C63.68,17.82 64.62,18.17 64.93,18.35 L67.57,10.78 C66.98,10.61 66.57,10.37 65.41,10.6 Z" fill="url(#SVGID_7_)"/>
  <path d="M80.85,5.49 C83.32,6.22 84.92,8.16 85.29,9.86 C85.4,10.36 85.09,14.51 76.37,9.05 C73.13,7.02 73.43,5.93 73.81,5.77 C75.1,5.2 78.08,4.67 80.85,5.49 Z" fill="url(#SVGID_8_)"/>
  <path d="M84.11,27.26 C83.71,23.88 88.97,24.35 88.97,24.35 C88.97,24.35 88.66,24.7 88.12,25.19 C87.36,25.87 86.87,26.47 86.78,27.12 C86.63,28.12 87.64,28.64 87.64,28.64 C87.64,28.64 84.85,29.38 84.11,27.26 Z" fill="url(#SVGID_9_)"/>
  <path d="M89.39,19.84 C89.39,19.84 87.21,23.17 86.52,23.38 C85.69,23.64 88.22,25.09 88.22,25.09 C88.22,25.09 90.99,23.1 89.39,19.84 Z" fill="url(#SVGID_10_)"/>
</svg>
